src/scalable/apps/zettlr.svg

<?xml version="1.0" encoding="UTF-8" standalone="no"?>
<svg
   width="64"
   height="64"
   viewBox="0 0 16.933 16.933"
   version="1.1"
   id="svg2"
   sodipodi:docname="zettlr.svg"
   xml:space="preserve"
   inkscape:version="1.4.2 (ebf0e940d0, 2025-05-08)"
   xmlns:inkscape="http://www.inkscape.org/namespaces/inkscape"
   xmlns:sodipodi="http://sodipodi.sourceforge.net/DTD/sodipodi-0.dtd"
   xmlns="http://www.w3.org/2000/svg"
   xmlns:svg="http://www.w3.org/2000/svg"><defs
     id="defs2" /><sodipodi:namedview
     id="namedview2"
     pagecolor="#505050"
     bordercolor="#ffffff"
     borderopacity="1"
     inkscape:showpageshadow="0"
     inkscape:pageopacity="0"
     inkscape:pagecheckerboard="1"
     inkscape:deskcolor="#505050"
     inkscape:zoom="6.390625"
     inkscape:cx="16.977995"
     inkscape:cy="18.621027"
     inkscape:window-width="1920"
     inkscape:window-height="1012"
     inkscape:window-x="0"
     inkscape:window-y="0"
     inkscape:window-maximized="1"
     inkscape:current-layer="svg2" /><circle
     cx="8.466"
     cy="8.466"
     r="7.144"
     fill="#f0f0f0"
     style="paint-order:stroke fill markers;fill:#24a575;fill-opacity:1"
     id="circle1" /><path
     style="fill:#f0f0f0;fill-opacity:1;stroke:none;stroke-width:0.0437129"
     d="m 8.8164822,13.455285 c 0,-0.02101 0.1082947,-0.159566 0.2406547,-0.307905 C 9.3847135,12.780258 9.5242543,12.492973 9.5472307,12.138383 9.5696218,11.792828 9.4789529,11.594528 9.2352648,11.45609 9.0929458,11.375237 8.9781033,11.360882 8.2999881,11.339134 7.1708882,11.302929 6.7443803,11.165033 6.3098622,10.695702 5.9184406,10.272919 5.7760644,9.7861745 5.8117173,8.9926785 5.8697951,7.7000908 6.559523,6.5505991 8.0939269,5.1891767 8.371122,4.9432316 8.5979177,4.7243351 8.5979177,4.7027394 c 0,-0.02224 -0.5117054,-0.039263 -1.1802483,-0.039263 H 6.2374211 V 4.051496 3.4395156 H 8.5979177 10.958414 L 10.958157,3.9968549 10.9579,4.5541953 10.474668,4.8746969 C 9.0567409,5.815137 8.0987454,6.9285266 7.7666017,8.022035 c -0.1290389,0.4248355 -0.11216,1.1543659 0.033134,1.4321438 0.1033009,0.1974913 0.3621294,0.3835331 0.540844,0.456243 0.063445,0.025812 0.4600349,0.1113052 0.8947706,0.1271722 0.7434057,0.02714 0.8050417,0.036 1.0361077,0.14905 0.653469,0.319712 0.996005,1.13677 0.800209,1.908745 -0.09361,0.369096 -0.316444,0.832137 -0.55185,1.146746 l -0.188071,0.251349 H 9.5741168 c -0.4166985,0 -0.7576337,-0.01719 -0.7576346,-0.0382 z"
     id="path4"
     sodipodi:nodetypes="sssscssssscccccccssssscsscss"
     inkscape:label="path1" /></svg>

<svg xmlns="http://www.w3.org/2000/svg" xml:space="preserve" width="64" height="64" viewBox="0 0 16.933 16.933"><circle cx="8.466" cy="8.466" r="7.144" fill="#f0f0f0" style="paint-order:stroke fill markers;fill:#24a575;fill-opacity:1"/><path d="M8.816 13.455c0-.02.109-.16.241-.308.328-.367.467-.654.49-1.009.023-.345-.068-.543-.312-.682-.142-.08-.257-.095-.935-.117-1.13-.036-1.556-.174-1.99-.643-.392-.423-.534-.91-.498-1.703C5.87 7.7 6.56 6.55 8.094 5.189c.277-.246.504-.465.504-.486 0-.023-.512-.04-1.18-.04h-1.18V3.44h4.72v1.114l-.483.32c-1.418.941-2.376 2.055-2.708 3.148-.13.425-.113 1.154.033 1.432.103.198.362.384.54.456.064.026.46.112.895.128.744.027.805.036 1.036.149.654.32.996 1.136.8 1.908-.093.37-.316.833-.551 1.147l-.188.251h-.758c-.417 0-.758-.017-.758-.038" style="fill:#f0f0f0;fill-opacity:1;stroke:none;stroke-width:.0437129"/></svg>
